!!!COM: Palestrina, Giovanni Perluigi da
!!!OPR: Missa Iste confessor
!!!OTL: Agnus I
**kern	**kern	**kern	**kern
*Ibass	*Itenor	*Icalto	*Icant
!Bassus	!Tenor	!Altus	!Cantus
*clefF4	*clefGv2	*clefG2	*clefG2
*k[]	*k[]	*k[]	*k[]
*G:mix	*G:mix	*G:mix	*G:mix
*M4/2	*M4/2	*M4/2	*M4/2
=1	=1	=1	=1
0r	0r	1c	0r
.	.	1d	.
=2	=2	=2	=2
0r	0r	1.c	1g
.	.	.	1a
.	.	2A	.
=3	=3	=3	=3
0r	0r	2B	1g
.	.	1c	.
.	.	.	2e
.	.	2d	2f
=4	=4	=4	=4
0r	1G	2e	2.g
.	.	2.d	.
.	.	.	4f
.	1A	.	2e
.	.	4c	.
.	.	[2c	2c
=5	=5	=5	=5
1r	1.G	2c]	1d
.	.	2B	.
1C	.	1c	2e
.	2E	.	[2g
=6	=6	=6	=6
1D	1F	1A	2g]
.	.	.	1f
1C	1G	[1c	.
.	.	.	2e
=7	=7	=7	=7
2AA	2A	2c]	2c
2BB	1G	2B	2d
2C	.	1A	2e
[2D	2F	.	2f
=8	=8	=8	=8
4D]	1E	1r	0g
4C	.	.	.
1C	.	.	.
.	1D	2r	.
2BB	.	[2d	.
=9	=9	=9	=9
1AA	1E	2d]	2r
.	.	2c	1a
1r	2F	2d	.
.	2E	2e	2g
=10	=10	=10	=10
1r	1D	2f	2a
.	.	2d	2b
2r	1A	2e	2cc
[2A	.	[2f	2a
=11	=11	=11	=11
2A]	1E	4f]	1b
.	.	4e	.
2G	.	1e	.
2A	1r	.	2cc
2B	.	2d	[2dd
=12	=12	=12	=12
1c	0r	1e	4dd]
.	.	.	4cc
.	.	.	1cc
1G	.	1d	.
.	.	.	2b
=13	=13	=13	=13
2.A	2r	1c	0cc
.	1A	.	.
4G	.	.	.
2F	.	2r	.
2E	2G	[2e	.
=14	=14	=14	=14
2F	2A	2e]	0r
1G	2B	2d	.
.	[1c	2e	.
2F	.	2f	.
=15	=15	=15	=15
2E	2c]	2g	2r
2F	2A	2c	1a
2.E	1B	[1e	.
.	.	.	2g
4D	.	.	.
=16	=16	=16	=16
2C	4E	2e]	2a
.	4F#	.	.
2BB	1G	2d	2b
1AA	.	1c	[1cc
.	2F#	.	.
=17	=17	=17	=17
2GG	1G	1r	2cc]
1G	.	.	2b
.	1D	1d	1a
2F#	.	.	.
=18	=18	=18	=18
2G	2r	1d	1g
2B	1d	.	.
1A	.	1e	1a
.	2c#	.	.
=19	=19	=19	=19
1D	1d	1f	2r
.	.	.	1dd
1r	1A	1e	.
.	.	.	2cc#
=20	=20	=20	=20
1.G	1B	0d	2dd
.	.	.	2g
.	2A	.	1a
2F#	[2d	.	.
=21	=21	=21	=21
2G	4d]	2r	0g
.	4B	.	.
2C	2e	1c	.
1G	1d	.	.
.	.	2B	.
=22	=22	=22	=22
1C	2r	2c	1r
.	1c	2e	.
1G	.	1d	1g
.	2B	.	.
=23	=23	=23	=23
0r	2c	2e	1g
.	2e	1g	.
.	1d	.	1a
.	.	2f#	.
=24	=24	=24	=24
2r	1G	2g	1b
1G	.	2G	.
.	1r	2.d	1a
2F#	.	.	.
.	.	4c	.
=25	=25	=25	=25
2G	0G	1B	1g
2GG	.	.	.
1C	.	1e	2r
.	.	.	[2cc
=26	=26	=26	=26
2GG	1G	1d	2cc]
1G	.	.	2b
.	1A	1r	2cc
2F#	.	.	[2a
=27	=27	=27	=27
2G	1B	0d	4a]
.	.	.	4g
2GG	.	.	1g
1D	1A	.	.
.	.	.	2f#
=28	=28	=28	=28
0GG	0G	0B	0g
==	==	==	==
*-	*-	*-	*-
!!!CDT: 1525/^1526/-1594/2/2
!!!OCY: Italia
!!!AGN: Mass (Paraphrase)
!!!AST: renaissance, vocal
!!!ASW: Hymn
!!!PWK: Masses, Book 5
!!!RNB: Cadence finals: D
!!!YOR: Le Opere Complete, v. 15, p. 72
!!!YOO: Rome, Italy: Fratelli Scalera
!!!END: 1992//
!!!EED: John Miller
!!!YEC: Copyright 2000, John Miller
!!!YEN: United States of America
!!!YEM: Rights to all derivative electronic formats reserved.
!!!YEM: Refer to licensing agreement for further details.
!!!YEM: This file must be accompanied by the licensing agreement.
!!!YEM: A copy of the licensing agreement may be found at http://www.music-cog.ohio-state.edu/HumdrumDatabases/Palestrina/license.txt
!!!EMD: converted to Humdrum by Bret Aarden
